Papirus/64x64/mimetypes/application-x-iso9660-appimage.svg

<?xml version="1.0" encoding="UTF-8" standalone="no"?>
<svg
   id="_图层_1"
   data-name="图层_1"
   version="1.1"
   viewBox="0 0 128 128"
   width="64"
   height="64"
   sodipodi:docname="application-x-iso9660-appimage.svg"
   xml:space="preserve"
   inkscape:version="1.4 (e7c3feb100, 2024-10-09)"
   xmlns:inkscape="http://www.inkscape.org/namespaces/inkscape"
   xmlns:sodipodi="http://sodipodi.sourceforge.net/DTD/sodipodi-0.dtd"
   xmlns="http://www.w3.org/2000/svg"
   xmlns:svg="http://www.w3.org/2000/svg"><sodipodi:namedview
     id="namedview3"
     pagecolor="#505050"
     bordercolor="#eeeeee"
     borderopacity="1"
     inkscape:showpageshadow="0"
     inkscape:pageopacity="0"
     inkscape:pagecheckerboard="0"
     inkscape:deskcolor="#505050"
     inkscape:zoom="10.6875"
     inkscape:cx="32"
     inkscape:cy="18.807018"
     inkscape:window-width="1920"
     inkscape:window-height="939"
     inkscape:window-x="0"
     inkscape:window-y="34"
     inkscape:window-maximized="1"
     inkscape:current-layer="_图层_1"
     showguides="true"><sodipodi:guide
       position="7.6134526,83.439664"
       orientation="1,0"
       id="guide7"
       inkscape:locked="false" /><sodipodi:guide
       position="120.24109,71.856006"
       orientation="1,0"
       id="guide8"
       inkscape:locked="false" /></sodipodi:namedview><!-- Generator: Adobe Illustrator 29.0.1, SVG Export Plug-In . SVG Version: 2.1.0 Build 192)  --><defs
     id="defs1"><style
       id="style1">
      .st0 {
        fill: #0071e9;
      }

      .st1 {
        fill: #fff;
      }

      .st2 {
        fill: #5aaaff;
        isolation: isolate;
        opacity: .5;
      }
    </style><style
       id="style1-6">
      .st0 {
        fill: #0071e9;
      }

      .st1 {
        fill: #fff;
      }

      .st2 {
        fill: #5aaaff;
        isolation: isolate;
        opacity: .5;
      }
    </style></defs><path
     class="st0"
     d="M18.2,0c-5.6,0-10.2,4.6-10.2,10.2v107.6c0,5.6,4.6,10.2,10.2,10.2h91.6c5.6,0,10.2-4.6,10.2-10.2V40.6L82.2,0H18.2Z"
     id="path1"
     style="fill:#e4e4e4;fill-opacity:1" /><path
     class="st2"
     d="m 82.761404,2.619883 v 29.2 c 0,3.2 2.145542,11.6 11.89801,11.6 h 24.966316 z"
     id="path2"
     style="fill:#cdcdcd;fill-opacity:1;stroke-width:0.987546" /><path
     class="st2"
     d="M 82.116964,0.02339171 V 29.223392 c 0,3.2 2.2,11.6 12.2,11.6 h 25.599996 z"
     id="path2-3"
     style="opacity:1;isolation:isolate;fill:#fafafa;fill-opacity:1" /><g
     id="g8"
     transform="matrix(1.3167231,0,0,1.248189,19.525679,38.159481)"><path
       style="opacity:0.2"
       d="M 5.1333837,23.486346 4.9185468,23.85744 c -0.3154354,0.558592 -0.1778434,1.331661 0.3085955,1.749975 l 4.4373354,3.893943 c 0.045175,-0.613351 0.1088864,-1.220382 0.1992151,-1.824193 L 5.2271603,23.607224 c -0.039199,-0.036 -0.059199,-0.084 -0.093799,-0.121998 z m 53.7332183,0 c -0.03458,0.038 -0.05458,0.0874 -0.09374,0.121098 l -4.636732,4.070341 c 0.09026,0.603811 0.154017,1.210842 0.199217,1.824193 l 4.437535,-3.894543 c 0.486373,-0.418314 0.624011,-1.191383 0.308596,-1.749975 L 58.867482,23.485466 Z M 9.645318,32.002222 c -0.01666,0.332255 -0.042967,0.66169 -0.042967,0.999985 0,0.507433 0.02607,1.005186 0.062499,1.499979 L 9.8640648,34.326408 C 9.7492665,33.560419 9.6844674,32.786431 9.645268,32.002442 Z m 44.709349,0 c -0.03932,0.783869 -0.104138,1.558017 -0.218756,2.324166 l 0.199217,0.175778 c 0.03644,-0.494793 0.0625,-0.992546 0.0625,-1.499979 0,-0.338295 -0.0263,-0.66773 -0.04296,-0.999985 z M 5.1333837,40.518098 C 4.7387894,40.952092 4.628591,41.632082 4.9185868,42.146074 l 5.6015182,9.710859 c 0.324776,0.550792 1.055645,0.821708 1.660136,0.613271 l 5.820115,-1.969971 c 1.748795,1.399919 3.742746,2.541763 5.863115,3.370951 l 1.179663,5.992113 c 0.119798,0.62739 0.71679,1.128003 1.35546,1.136703 h 11.203037 c 0.638651,-0.008 1.235702,-0.509313 1.355461,-1.136703 l 1.179662,-5.992113 c 2.11797,-0.829988 4.111941,-1.971972 5.859915,-3.371951 l 5.820315,1.968731 c 0.604472,0.208437 1.335361,-0.0624 1.660136,-0.613271 l 5.601519,-9.710859 c 0.290016,-0.513592 0.179797,-1.195122 -0.214837,-1.628876 l -5.386722,9.339664 c -0.324775,0.550872 -1.055664,0.821708 -1.660136,0.613271 l -5.821915,-1.969971 c -1.748794,1.39992 -3.742745,2.537763 -5.863115,3.367151 l -1.179662,5.995913 c -0.117999,0.625991 -0.71599,1.127983 -1.353981,1.135983 H 26.395234 c -0.63865,-0.0086 -1.235662,-0.509312 -1.35546,-1.136703 l -1.177983,-5.995913 c -2.121969,-0.829988 -4.11514,-1.967971 -5.863915,-3.367951 l -5.820315,1.967971 c -0.604391,0.209997 -1.33518,-0.062 -1.659976,-0.611991 L 5.1308637,40.512518 Z"
       id="path1-3" /><path
       style="fill:#1fa5cd"
       d="m 26.268276,4.0018439 c -0.593611,0.064599 -1.116484,0.550292 -1.224982,1.1374634 L 23.862091,11.13282 c -2.120569,0.829308 -4.11354,1.968731 -5.862315,3.368751 L 12.181861,12.5328 c -0.604491,-0.208437 -1.33768,0.0616 -1.662456,0.612491 L 4.9194868,22.85755 c -0.3154354,0.558591 -0.1801974,1.33164 0.3062355,1.749954 l 4.6373325,4.068541 c -0.1631976,1.090924 -0.2624961,2.188568 -0.2624961,3.324951 0,1.136424 0.099198,2.233968 0.2624961,3.324952 l -4.6373325,4.068741 c -0.4863729,0.418314 -0.6216709,1.191363 -0.3062355,1.749954 l 5.5999182,9.712259 c 0.324776,0.550792 1.057965,0.820908 1.662456,0.612471 l 5.818515,-1.968691 c 1.748795,1.399919 3.741746,2.539363 5.862315,3.368751 l 1.181203,5.993513 c 0.119798,0.627391 0.71757,1.128763 1.35622,1.137463 h 11.199637 c 0.638651,-0.008 1.236462,-0.510072 1.356201,-1.137463 l 1.181222,-5.993513 c 2.120569,-0.829308 4.11354,-1.968752 5.862315,-3.368751 l 5.818515,1.968691 c 0.604472,0.208437 1.337681,-0.0616 1.662456,-0.612471 l 5.599919,-9.712259 c 0.315415,-0.558591 0.180197,-1.33164 -0.306236,-1.749954 l -4.637332,-4.068741 c 0.163197,-1.090924 0.262476,-2.188368 0.262476,-3.324952 0,-1.136423 -0.0994,-2.233967 -0.262476,-3.324951 l 4.637332,-4.068541 c 0.486373,-0.418314 0.621651,-1.191363 0.306236,-1.749954 L 53.48046,13.145291 C 53.155685,12.594499 52.422476,12.324363 51.818004,12.5328 l -5.818515,1.968691 C 44.249515,13.100511 42.257543,11.961128 40.137574,11.13174 L 38.956352,5.1382273 C 38.836553,4.5108365 38.238802,4.0094438 37.600151,4.0007639 H 26.400514 c -0.0438,-0.00102 -0.0876,-0.00102 -0.131198,0 z"
       id="path2-4" /><path
       style="opacity:0.2"
       d="m 29.342517,19.000411 c -0.791418,0 -1.342266,0.637133 -1.342266,1.428551 v 16.571187 h -5.999913 l 9.999855,11.999826 9.999854,-11.999826 H 36.000135 V 20.428962 c 0,-0.791418 -0.550848,-1.428551 -1.342267,-1.428551 z"
       id="path3" /><path
       style="fill:#ffffff"
       d="m 29.342517,18.00044 c -0.791418,0 -1.342266,0.637134 -1.342266,1.428551 v 16.571187 h -5.999913 l 9.999855,11.999826 9.999854,-11.999826 H 36.000135 V 19.428991 c 0,-0.791417 -0.550848,-1.428551 -1.342267,-1.428551 z"
       id="path4" /><path
       style="opacity:0.2;fill:#ffffff"
       d="m 26.269531,4 -0.002,0.00195 C 25.67392,4.066549 25.15142,4.5514974 25.042922,5.1386688 L 23.861328,11.132812 C 21.740759,11.96212 19.748775,13.101933 18,14.501953 l -5.818359,-1.96875 c -0.604491,-0.208437 -1.337334,0.06044 -1.66211,0.611328 l -5.5996091,9.712891 c -0.2017901,0.357341 -0.2015811,0.79583 -0.060547,1.179687 0.022602,-0.05945 0.029066,-0.12394 0.060547,-0.179687 l 5.5996091,-9.712891 c 0.324776,-0.550891 1.057619,-0.819765 1.66211,-0.611328 L 18,15.501953 c 1.748775,-1.40002 3.740759,-2.539833 5.861328,-3.369141 L 25.042969,6.1386719 C 25.151467,5.5515005 25.673967,5.0665521 26.267578,5.0019531 L 26.269531,5 c 0.0436,-0.00102 0.08706,-0.00102 0.13086,0 h 11.199218 c 0.638651,0.00868 1.237623,0.5112811 1.357422,1.1386719 l 1.179688,5.9921871 C 42.256688,12.960247 44.250026,14.100973 46,15.501953 l 5.818359,-1.96875 c 0.604472,-0.208437 1.337335,0.06054 1.66211,0.611328 l 5.599609,9.712891 c 0.03148,0.05575 0.03795,0.120234 0.06055,0.179687 0.141032,-0.383857 0.14123,-0.822346 -0.06055,-1.179687 l -5.599609,-9.712891 c -0.324775,-0.550792 -1.057638,-0.819765 -1.66211,-0.611328 L 46,14.501953 c -1.749974,-1.40098 -3.743312,-2.541706 -5.863281,-3.371094 L 38.957031,5.1386719 C 38.837232,4.5112811 38.23826,4.0086799 37.599609,4 H 26.400391 c -0.0438,-0.00102 -0.08726,-0.00102 -0.13086,0 z M 9.7558594,29.582031 c -0.090841,0.795095 -0.15625,1.59632 -0.15625,2.419922 0,0.168686 0.017228,0.330968 0.021484,0.498047 0.024493,-0.958027 0.1032809,-1.895672 0.2421874,-2.824219 z m 44.4882816,0 -0.107422,0.09375 c 0.138806,0.928616 0.217677,1.866168 0.242187,2.824219 0.0043,-0.167073 0.01953,-0.329356 0.01953,-0.498047 0,-0.823631 -0.06347,-1.624831 -0.154297,-2.419922 z M 9.7558594,35.419922 5.2265625,39.394531 C 4.7887294,39.771098 4.6555139,40.42857 4.859375,40.964844 4.938805,40.748661 5.0513316,40.545242 5.2265625,40.394531 l 4.6367187,-4.068359 c -0.044946,-0.300285 -0.072919,-0.604297 -0.1074218,-0.90625 z m 44.4882816,0 c -0.0345,0.301937 -0.0625,0.605981 -0.107422,0.90625 l 4.636719,4.068359 c 0.175252,0.150711 0.287761,0.35413 0.367187,0.570313 0.203859,-0.536274 0.0707,-1.193746 -0.367187,-1.570313 z"
       id="path5" /></g></svg>

<svg xmlns="http://www.w3.org/2000/svg" width="64" height="64" version="1">
 <path style="opacity:0.2" d="M 5.1333837,23.486346 4.9185468,23.85744 c -0.3154354,0.558592 -0.1778434,1.331661 0.3085955,1.749975 l 4.4373354,3.893943 c 0.045175,-0.613351 0.1088864,-1.220382 0.1992151,-1.824193 L 5.2271603,23.607224 c -0.039199,-0.036 -0.059199,-0.084 -0.093799,-0.121998 z m 53.7332183,0 c -0.03458,0.038 -0.05458,0.0874 -0.09374,0.121098 l -4.636732,4.070341 c 0.09026,0.603811 0.154017,1.210842 0.199217,1.824193 l 4.437535,-3.894543 c 0.486373,-0.418314 0.624011,-1.191383 0.308596,-1.749975 L 58.867482,23.485466 Z M 9.645318,32.002222 c -0.01666,0.332255 -0.042967,0.66169 -0.042967,0.999985 0,0.507433 0.02607,1.005186 0.062499,1.499979 L 9.8640648,34.326408 C 9.7492665,33.560419 9.6844674,32.786431 9.645268,32.002442 Z m 44.709349,0 c -0.03932,0.783869 -0.104138,1.558017 -0.218756,2.324166 l 0.199217,0.175778 c 0.03644,-0.494793 0.0625,-0.992546 0.0625,-1.499979 0,-0.338295 -0.0263,-0.66773 -0.04296,-0.999985 z M 5.1333837,40.518098 C 4.7387894,40.952092 4.628591,41.632082 4.9185868,42.146074 l 5.6015182,9.710859 c 0.324776,0.550792 1.055645,0.821708 1.660136,0.613271 l 5.820115,-1.969971 c 1.748795,1.399919 3.742746,2.541763 5.863115,3.370951 l 1.179663,5.992113 c 0.119798,0.62739 0.71679,1.128003 1.35546,1.136703 h 11.203037 c 0.638651,-0.008 1.235702,-0.509313 1.355461,-1.136703 l 1.179662,-5.992113 c 2.11797,-0.829988 4.111941,-1.971972 5.859915,-3.371951 l 5.820315,1.968731 c 0.604472,0.208437 1.335361,-0.0624 1.660136,-0.613271 l 5.601519,-9.710859 c 0.290016,-0.513592 0.179797,-1.195122 -0.214837,-1.628876 l -5.386722,9.339664 c -0.324775,0.550872 -1.055664,0.821708 -1.660136,0.613271 l -5.821915,-1.969971 c -1.748794,1.39992 -3.742745,2.537763 -5.863115,3.367151 l -1.179662,5.995913 c -0.117999,0.625991 -0.71599,1.127983 -1.353981,1.135983 H 26.395234 c -0.63865,-0.0086 -1.235662,-0.509312 -1.35546,-1.136703 l -1.177983,-5.995913 c -2.121969,-0.829988 -4.11514,-1.967971 -5.863915,-3.367951 l -5.820315,1.967971 c -0.604391,0.209997 -1.33518,-0.062 -1.659976,-0.611991 L 5.1308637,40.512518 Z"/>
 <path style="fill:#1fa5cd" d="m 26.268276,4.0018439 c -0.593611,0.064599 -1.116484,0.550292 -1.224982,1.1374634 L 23.862091,11.13282 c -2.120569,0.829308 -4.11354,1.968731 -5.862315,3.368751 L 12.181861,12.5328 c -0.604491,-0.208437 -1.33768,0.0616 -1.662456,0.612491 L 4.9194868,22.85755 c -0.3154354,0.558591 -0.1801974,1.33164 0.3062355,1.749954 l 4.6373325,4.068541 c -0.1631976,1.090924 -0.2624961,2.188568 -0.2624961,3.324951 0,1.136424 0.099198,2.233968 0.2624961,3.324952 l -4.6373325,4.068741 c -0.4863729,0.418314 -0.6216709,1.191363 -0.3062355,1.749954 l 5.5999182,9.712259 c 0.324776,0.550792 1.057965,0.820908 1.662456,0.612471 l 5.818515,-1.968691 c 1.748795,1.399919 3.741746,2.539363 5.862315,3.368751 l 1.181203,5.993513 c 0.119798,0.627391 0.71757,1.128763 1.35622,1.137463 h 11.199637 c 0.638651,-0.008 1.236462,-0.510072 1.356201,-1.137463 l 1.181222,-5.993513 c 2.120569,-0.829308 4.11354,-1.968752 5.862315,-3.368751 l 5.818515,1.968691 c 0.604472,0.208437 1.337681,-0.0616 1.662456,-0.612471 l 5.599919,-9.712259 c 0.315415,-0.558591 0.180197,-1.33164 -0.306236,-1.749954 l -4.637332,-4.068741 c 0.163197,-1.090924 0.262476,-2.188368 0.262476,-3.324952 0,-1.136423 -0.0994,-2.233967 -0.262476,-3.324951 l 4.637332,-4.068541 c 0.486373,-0.418314 0.621651,-1.191363 0.306236,-1.749954 L 53.48046,13.145291 C 53.155685,12.594499 52.422476,12.324363 51.818004,12.5328 l -5.818515,1.968691 C 44.249515,13.100511 42.257543,11.961128 40.137574,11.13174 L 38.956352,5.1382273 C 38.836553,4.5108365 38.238802,4.0094438 37.600151,4.0007639 H 26.400514 c -0.0438,-0.00102 -0.0876,-0.00102 -0.131198,0 z"/>
 <path style="opacity:0.2" d="m 29.342517,19.000411 c -0.791418,0 -1.342266,0.637133 -1.342266,1.428551 v 16.571187 h -5.999913 l 9.999855,11.999826 9.999854,-11.999826 H 36.000135 V 20.428962 c 0,-0.791418 -0.550848,-1.428551 -1.342267,-1.428551 z"/>
 <path style="fill:#ffffff" d="m 29.342517,18.00044 c -0.791418,0 -1.342266,0.637134 -1.342266,1.428551 v 16.571187 h -5.999913 l 9.999855,11.999826 9.999854,-11.999826 H 36.000135 V 19.428991 c 0,-0.791417 -0.550848,-1.428551 -1.342267,-1.428551 z"/>
 <path style="fill:#ffffff;opacity:0.2" d="M 26.269531 4 L 26.267578 4.0019531 C 25.673967 4.0665521 25.151467 4.5515005 25.042969 5.1386719 L 23.861328 11.132812 C 21.740759 11.96212 19.748775 13.101933 18 14.501953 L 12.181641 12.533203 C 11.57715 12.324766 10.844307 12.59364 10.519531 13.144531 L 4.9199219 22.857422 C 4.7181318 23.214763 4.7183408 23.653252 4.859375 24.037109 C 4.8819768 23.977656 4.8884415 23.913169 4.9199219 23.857422 L 10.519531 14.144531 C 10.844307 13.59364 11.57715 13.324766 12.181641 13.533203 L 18 15.501953 C 19.748775 14.101933 21.740759 12.96212 23.861328 12.132812 L 25.042969 6.1386719 C 25.151467 5.5515005 25.673967 5.0665521 26.267578 5.0019531 L 26.269531 5 C 26.313129 4.99898 26.356591 4.99898 26.400391 5 L 37.599609 5 C 38.23826 5.0086799 38.837232 5.5112811 38.957031 6.1386719 L 40.136719 12.130859 C 42.256688 12.960247 44.250026 14.100973 46 15.501953 L 51.818359 13.533203 C 52.422831 13.324766 53.155694 13.593739 53.480469 14.144531 L 59.080078 23.857422 C 59.111556 23.913169 59.118025 23.977656 59.140625 24.037109 C 59.281657 23.653252 59.281855 23.214763 59.080078 22.857422 L 53.480469 13.144531 C 53.155694 12.593739 52.422831 12.324766 51.818359 12.533203 L 46 14.501953 C 44.250026 13.100973 42.256688 11.960247 40.136719 11.130859 L 38.957031 5.1386719 C 38.837232 4.5112811 38.23826 4.0086799 37.599609 4 L 26.400391 4 C 26.356591 3.99898 26.313129 3.99898 26.269531 4 z M 9.7558594 29.582031 C 9.6650181 30.377126 9.5996094 31.178351 9.5996094 32.001953 C 9.5996094 32.170639 9.6168372 32.332921 9.6210938 32.5 C 9.6455864 31.541973 9.7243747 30.604328 9.8632812 29.675781 L 9.7558594 29.582031 z M 54.244141 29.582031 L 54.136719 29.675781 C 54.275525 30.604397 54.354396 31.541949 54.378906 32.5 C 54.383165 32.332927 54.398438 32.170644 54.398438 32.001953 C 54.398438 31.178322 54.334965 30.377122 54.244141 29.582031 z M 9.7558594 35.419922 L 5.2265625 39.394531 C 4.7887294 39.771098 4.6555139 40.42857 4.859375 40.964844 C 4.9388046 40.748661 5.0513316 40.545242 5.2265625 40.394531 L 9.8632812 36.326172 C 9.8183347 36.025887 9.7903619 35.721875 9.7558594 35.419922 z M 54.244141 35.419922 C 54.209644 35.721859 54.181638 36.025903 54.136719 36.326172 L 58.773438 40.394531 C 58.94869 40.545242 59.061199 40.748661 59.140625 40.964844 C 59.344484 40.42857 59.211325 39.771098 58.773438 39.394531 L 54.244141 35.419922 z"/>
</svg>
